Obsidian-SemiLight/actions/16s/format-border-set-all.svg

<svg viewBox="0 0 16 16" xmlns="http://www.w3.org/2000/svg"><g fill="#4d4d4d"><path d="m2 1v13h13v-13zm1 1h5v5h-5zm6 0h5v5h-5zm-6 6h5v5h-5zm6 0h5v5h-5z"/><path d="m3 2h11v11h-11z" fill-opacity=".5"/></g></svg>

<svg xmlns="http://www.w3.org/2000/svg" viewBox="0 0 16 16">
  <defs id="defs3051">
    <style type="text/css" id="current-color-scheme">
      .ColorScheme-Text {
        color:#4d4d4d;
      }
      </style>
  </defs>
 <path style="fill:currentColor;fill-opacity:1;stroke:none" 
     d="M 2,1 2,14 15,14 15,1 2,1 Z M 3,2 8,2 8,7 3,7 3,2 Z M 9,2 14,2 14,7 9,7 9,2 Z M 3,8 8,8 8,13 3,13 3,8 Z m 6,0 5,0 0,5 -5,0 0,-5 z"
     class="ColorScheme-Text"
     />
 <path style="fill:currentColor;fill-opacity:0.5;stroke:none" 
     d="M 3,2 14,2 14,13 3,13 Z"
     class="ColorScheme-Text"
     />
</svg>
